X:1
T:Title
%%score { 1 | ( 2 3 ) }
L:1/8
Q:1/4=86
M:2/4
K:Ab
V:1 treble nm="Grand Piano"
V:2 bass 
V:3 bass 
V:1
 [Ec]>[DB] [CA]>[EG] | [DA] .[DF]3 | [CE]>[CE] [Ae]>[Ac] | [GB]4 | [Ec]>[DB] [CA]>[EG] | A .F3 | %6
w: Charles~Converse * * *||||||
 E>E c>B | [CA]4 | [GB]>B c>B | B .G3 | [GB]>B [Ge]>[Ge] | [F=d]4 | [Ge]>B [FA]>[EG] | [FA] .c3 | %14
w: ||||||||
 [GB]>B [Ac]=d |[M:5/8] [Ge]2 [Bd]3 |[M:2/4] [Ec]>[DB] [CA]>[EG] | [DA] .[DF]3 | %18
w: ||||
 [CE]>[CE] [Ae]>[Ac] | [GB]4 | [Ec]>[DB] [CA]>[EG] | A .F3 | E>E c>B | [CA]4 |] %24
w: ||||||
V:2
 [A,,A,]>[A,,E,] [A,,A,]>[A,,E,] | [D,F,] .[D,A,]3 | [A,,A,]>[A,,A,] [A,C]>[A,C] | [E,E]4 | %4
 [A,,A,]>[A,,E,] [A,,A,]>[A,,E,] | [D,F,D] .[D,A,D]3 | [E,A,C]>[E,A,C] [E,A,E]>[E,G,D] | [A,,E,]4 | %8
 z z/ G/ A>G | G .E3 | z z/ G/ E,>G, | B,4 | z z/ G/ =D,>E, | z[K:treble] .A3 | z z/ G/ z A | %15
[M:5/8][K:bass] [E,B,]-[E,B,]- [E,B,]3 |[M:2/4] [A,,A,]>[A,,E,] [A,,A,]>[A,,E,] | [D,F,] .[D,A,]3 | %18
 [A,,A,]>[A,,A,] [A,,C]>[A,C] | [E,E]4 | [A,,A,]>[A,,E,] [A,,A,]>[A,,E,] | [D,F,D] .[D,A,D]3 | %22
 [E,A,C]>[E,A,C] [E,A,E]>[E,G,D] | [A,,E,]4 |] %24
V:3
 x4 | x4 | x4 | x4 | x4 | x4 | x4 | x4 | E,4- | E,4 | E,2 z2 | x4 | E,2 z2 | A,4[K:treble] | %14
 B,2 B,2 |[M:5/8][K:bass] x5 |[M:2/4] x4 | x4 | x4 | x4 | x4 | x4 | x4 | x4 |] %24

